svgs/sharp-regular/hexagon-divide.svg

<svg xmlns="http://www.w3.org/2000/svg" viewBox="0 0 512 512"><!--! Font Awesome Pro 6.4.0 by @fontawesome - https://fontawesome.com License - https://fontawesome.com/license (Commercial License) Copyright 2023 Fonticons, Inc. --><path d="M55.3 256L155.9 80H356.1L456.7 256 356.1 432H155.9L55.3 256zM128 32L0 256 128 480H384L512 256 384 32H128zm160 96H224v64h64V128zM168 232H144v48h24H344h24V232H344 168zm56 88v64h64V320H224z"/></svg>

<svg xmlns="http://www.w3.org/2000/svg" viewBox="0 0 512 512"><!--! Font Awesome Pro 6.6.0 by @fontawesome - https://fontawesome.com License - https://fontawesome.com/license (Commercial License) Copyright 2024 Fonticons, Inc. --><path d="M55.3 256L155.9 80l200.3 0L456.7 256 356.1 432l-200.3 0L55.3 256zM128 32L0 256 128 480l256 0L512 256 384 32 128 32zm160 96l-64 0 0 64 64 0 0-64zM168 232l-24 0 0 48 24 0 176 0 24 0 0-48-24 0-176 0zm56 88l0 64 64 0 0-64-64 0z"/></svg>
